X:509
T: Rundgesang (213), S. 464
N: T0397
O: Luxemburg
S: Singendes Volk, Esch-Alzette, 1937 posth.]
N: Hamm, ? Welter, 26.3.1933
N: (214)- Consdorf, Liederheft, 1848-51, ohne Melodie;
N: (215)- Straen, fff Witry, 13.12.1932
R: Trink-, Zechlied]
M: 2/4
L: 1/8
K: G
D | G2d2 | BAG2
B2AA | D2F2 | G2
D2 | G2d2 | BAG2
B2AA | D2F2 | G2z
d | dcBd | dcB
d | edcA | GGG
d | dcBd | dcB
d | edcA | GGG

